X:26
T: ES IST IN DEINEN LIEDERN MEIN VOLK DIR PROPHEZEIT
N: B0029
O: Europa, Mitteleuropa, Deutschland
R: politisch, national, Vaterlands - Lied
M: 4/4
L: 1/8
K: C
CD | E2E2F2E2 | GDD2z2
DE | F2F2A2GF | E4z2
C2 | A2A2c2BA | AGG2z2
c2 | G2EGG2FD | C4z2
C2 | A2A2c2BA | AGG2z2
c2 | G2EGG2FD | C4z2

